X: 3407
T: Couteraller's Rant
P: Mr Tierney's Reel
C:Astor's 24 Country Dances for the year 1804
B:RSCDS 34-7
Z:Anselm Lingnau <anselm@strathspey.org>
R:Strathspey (8x32)
M:C
L:1/8
K:G
d|"G"[gB]<[gB] g>d "Em"B2 Gc/d/|"C"e>c "G"d>B "Am"cA "D7"Ac|\
  "G"[gB]<[gB] g>d "Em"B2 GA/B/|"Am"c>A "D7"d>c "G"BGGd|
  "G"[gB]<[gB] g>d "Em"B2 Gc/d/|"C"e>c "G"d>B "Am"cA "D7"Ac|\
  "G"[gB]<[gB] g>d "Em"B2 GA/B/|"Am"c>A "D7"d>c "G"BGG||
B|"G"G/F/E/D/ "C"EG "Am"ceAc|"G"B<G d>B "Am"eA"D7"AB|\
  "G"G/F/E/D/ "C"EG "Am"ceAc|"D7"B<g c>A "G"BGGB|
  "G"G/F/E/D/ "C"EG "Am"ceAc|"G"B<G d>B "Am"eA"D7"Ac|\
  "G7"BGdB "Am"cAaf|"D7"g>d e>c "G"BGG|]
%%center Book34/3407-Couterallers_Rant-AL.abc

%%sep 1 1 500
%%sep 1 1 500

